X: 19
T: The Brickfields
%R: jig
B: "Twenty Four Favourite Dances for the Year 1783", Thomas Straight, ed. p.10 #1
F: http://www.vwml.org/browse/browse-collections-dance-tune-books/browse-straights1783
Z: 2014 John Chambers <jc:trillian.mit.edu>
M: 6/8
L: 1/8
K: D
A |\
def efd | c>BA d2F |\
GAB ABc | d2A F<D :: A |\
def efg | afd ecA |
def efg | afd ecA |\
gb2 gb2 | fa2 fa2 |\
ABc ABc | d2A F<D :|
% - - - - - - - - - - Dance description: - - - - - - - - - -
%%begintext align
%% 1st & 2d Cu la Paussett .|. 1st 2d & 3d Cu
%% promenade round with their partners .|: lead
%% down the middle up again & cast off :|. alle
%% mand with your partner :|:
%%endtext

%%sep 1 1 500
%%sep 1 1 500
